trunk/public/assets/images/icons/grey/move_left/vcard.svg

<svg width="16" height="16" xmlns="http://www.w3.org/2000/svg" viewBox="0 0 16 16" shape-rendering="geometricPrecision" fill="#6e6e6e"><defs><mask id="a"><rect fill="#fff" width="100%" height="100%"/><path fill="#000" d="M16.383 1.058l-2.47-2.473-4.51 4.512 4.51 4.506 2.47-2.47-2.035-2.038z"/></mask></defs><path fill="#cb1800" d="M12.935 3.095l2.035-2.037L13.913 0l-3.096 3.097 3.096 3.092 1.057-1.057"/><path d="M1.034 2.913v10.174h13.932V2.913H1.034zm4.08 1.445c.985 0 1.78.8 1.78 1.783 0 .987-.795 1.782-1.78 1.782-.984 0-1.782-.795-1.782-1.78s.798-1.784 1.78-1.784zm3.03 7.686h-6.06v-2.002c0-.848.69-1.54 1.538-1.54h2.98c.847 0 1.54.692 1.54 1.54v2.002zm5.224-4.14H9.075V6.848h4.293v1.058zm0-2.196H9.075V4.643h4.293v1.065z" mask="url(#a)"/></svg>

<?xml version="1.0"?><!DOCTYPE svg PUBLIC "-//W3C//DTD SVG 1.1//EN" "http://www.w3.org/Graphics/SVG/1.1/DTD/svg11.dtd"><svg width="16px" height="16px" xmlns="http://www.w3.org/2000/svg" viewBox="0 0 16 16" shape-rendering="geometricPrecision" fill="#6e6e6e"><defs><mask id="move_left-path"><rect fill="#fff" width="100%" height="100%"/><polygon points="16.383,1.058 13.913,-1.415 9.403,3.097 13.914,7.603 16.383,5.134 14.348,3.095 " fill="#000"/></mask></defs><polygon points="12.935,3.095 14.97,1.058 13.913,0 10.817,3.097 13.913,6.189 14.97,5.133 " fill="#cb1800"/><g mask="url(#move_left-path)"><g><g><path d="M1.034,2.913v10.174h13.932V2.913H1.034z M5.113,4.358c0.986,0,1.781,0.799,1.781,1.783 c0,0.986-0.795,1.781-1.781,1.781c-0.983,0-1.781-0.795-1.781-1.781C3.332,5.157,4.13,4.358,5.113,4.358z M8.143,12.044H2.084 v-2.002c0-0.848,0.69-1.541,1.538-1.541h2.979c0.848,0,1.542,0.693,1.542,1.541V12.044z M13.368,7.905H9.075V6.847h4.293V7.905z M13.368,5.708H9.075V4.643h4.293V5.708z"/></g></g></g></svg>
